coffee-maker-check.svg

<svg fill="currentColor" viewBox="0 0 24 24"><path d="m17.75 21.16-2.75-3L16.16 17l1.59 1.59L21.34 15l1.16 1.41zM13 18c0-2.22 1.21-4.15 3-5.19V11H6v5c0 1.64.81 3.09 2.03 4H4V4h2v2c0 .55.45 1 1 1h8c.55 0 1-.45 1-1V4h2V2H4c-1.1 0-2 .9-2 2v16c0 1.1.9 2 2 2h10.54A5.93 5.93 0 0 1 13 18m-3-9c0 .55.45 1 1 1s1-.45 1-1-.45-1-1-1-1 .45-1 1"/></svg>

<svg  viewBox="0 0 24 24" fill="currentColor"><path  d="M17.75 21.16L15 18.16L16.16 17L17.75 18.59L21.34 15L22.5 16.41L17.75 21.16M13 18C13 15.78 14.21 13.85 16 12.81V11H6V16C6 17.64 6.81 19.09 8.03 20H4V4H6V6C6 6.55 6.45 7 7 7H15C15.55 7 16 6.55 16 6V4H18V2H4C2.9 2 2 2.9 2 4V20C2 21.1 2.9 22 4 22H14.54C13.58 20.94 13 19.54 13 18M10 9C10 9.55 10.45 10 11 10S12 9.55 12 9 11.55 8 11 8 10 8.45 10 9Z"/></svg>
